X:1020
T:Baille de Panderu (CT 308)
R:Panderu
C:Tradicional
S:Música Tradicional Asturiana, (C) Tello & Tito. Asturies, 2001.
S:http://pagina.de/MusTradAst <telloytito@asturies.org>
N:Canción de baile de pandero, transcrita en Muriellos, ayuntamiento de Quirós.
O:Muriellos (Quirós)
A:Asturies
Z:Cancioneru de Torner 308
M:6/8
L:1/8
Q:3/8=88
W:Pretendisti cortexar
W:en casa de corredores
W:y agora ya nun te quieren
W:nin las ricas nin las pobres.
K:G
G|ddd d2c|(dc2- c2)c|=ff_e d2c|_ed2- d2B|
ddd d2c|(dc/2B/2)c d2B|(cB/2A/2)B A2G|FG2- G2z||


